X: 1
T: Donnie, Gelase And Andre's Doryman
R: hornpipe
M: 4/4
L: 1/8
K: Dmaj
fg|Ta2 fd Adfd|AGFG Adfd|Tg2 ec Acec|egfa gba^g|
Ta2 fd Adfd|AGFG Adfd|BGdB caec|d2 f2 d2:|
z2|A2 FA BA f2|efbf afdB|A/A/A ^GA cdef|Tgece b^g a2|
A2 FA BA f2|efbf afdc|BGdB caec|d2 f2 d2:|

